X:1
T:Peccavi super numerum
T:Anonymous
T:Source : Trium vocum cantiones---Nürnberg---J.Petreius---1541. Editor : André Vierendeels (15/10/16).
T:Notes : Original clefs : C 1, C3, C4 Editorial accidentals above the staff Original note values have been halved
T:Peccavi super numerum
T:©
T:©
T:©
T:©
T:©
T:©
C:Anonymous
Z:©
%%score [ 1 [ 2 3 ] ]
L:1/8
Q:1/4=121
M:2/2
K:F
V:1 treble nm="Soprano" snm="S"
V:2 treble-8 nm="Tenor 1" snm="T 1"
V:3 treble-8 nm="Tenor 2" snm="T 2"
V:1
 B8 | A8 | G8 | z8 | c8 | B8 | A8 | G6 A2 | B2 c2 d4- |"^-natural" d2 cB c4 | A4 d4- | %11
w: Pec-|ca-|vi,||pec-|ca-|vi|su- per|nu- me- rum|_ _ _ a-|re- *|
 d2 c2 B2 AG | F4 B4- | B2 A2 G2 FE | F2 G4 F2 | G8 | z4 B4- | B2 A2 B2 A2 | B4 G4 | F8- | F8 | %21
w: |nae ma-|||ris,|et|_ mul- ti- pli-|ca- ta|sunt|_|
 z2 F2 G2 B2 | A6 F2 | F3 G AB c2- | cB B4 A2 | G8- | G8 | z4 B4- | B2 B2 B2 c2 | d2 c2 f2 e2- | %30
w: pec- ca- ta|me- *|||a,|_|et|_ non sum di-|gnus vi- de- *|
 ed d4 c2 | d4 B4- | B2 A2 G2 F2 | G4 E4 | D8- | D8 | d6 d2 | d2 d2 c2 d2- | d2 c2 d4 | B4 A2 B2- | %40
w: |re al-|* ti- tu- di-|ne coe-|li,|_|quo- ni-|am ir- ri- ta-|* vi i-|ram tu- *|
 Bc d4 c2 | f3 e d2 e2- | ed d4 c2 | d4 A4- | A2 A2 A4- | A4 d2 B2 | G2 c2 A2 d2 | B2 G2 c2 A2 | %48
w: * * * am,|Do- * * *|* * mi- *|ne, Do-|* mi- ne,|_ et ma-|lum co- ram te|fe- ci et ma-|
 F2 B2 G2 c2 | A2 F2 d2 B2 | G2 c2 A2 d2 | B2 G2 c2 A2 | F2 B2 G2 c2 | A2 F2 G2 A2- | AG G4 F2 | %55
w: lum co- ram te|fe- ci et ma-|lum co- ram te|fe- ci et ma-|lum co- ram te|fe- * * *||
 G8 |] %56
w: ci.|
V:2
 z8 | f8 | e8 | d8 | z8 | g8 | f8 | e8 | d4 f4- | f2 ed e4 | f4 B4- | B2 c2 d2 e2 | d4 G4- | %13
w: |Pec-|ca-|vi,||pec-|ca-|vi|su- per|_ _ _ _|* nu-|* * * me-|rum a-|
 G2 A2 B2 c2 | B2 AG A4 | G4 d4- | d4 z2 g2- | g2 f2 d2 f2 |"^b" e2 d4 c2 | d4 z2 d2- | %20
w: * re- nae ma-||* ris,|_ et|_ mul- ti- pli-|ca- * ta|sunt, et|
 d2 c2 d2 c2 | d2 B2 Bcde | f2 ed c2 c2 | d4 c2 A2 | B4 c4 | _e4 e2 d2 | _e4 c2 d2 | _e4 d4 | %28
w: _ mul- * ti-|pli- ca- ta _ _ _|_ _ _ _ sunt|pec- ca- ta|me- a,|et non sum|di- gnus vi-|de- re,|
 z2 f2 f2 e2 | d2 a4 g2 | f2 ed e4 | d4 G4- | G2 A2 B4- | B2 B2 c4 | F4 F4 | f6 f2 | f2 f2 d2 f2 | %37
w: et non sum|di- gnus vi-|de- * * *|re al-|* ti- tu-|* di- nem|coe- li,|quo- ni-|am ir- ri- ta-|
"^b" g2 f4 ed |"^b" e4 d2 g2- | g2 fe f2 g2 | G3 A B2 c2 | d3 e f2 g2- | g2 f2 e4 | d4 f4- | %44
w: vi i- ram _|tu- am, Do-||||* * mi-|ne, Do-|
 f2 ed e2 e2 | f4 z2 g2 | e2 c2 f2 d2 | g2 e2 c2 f2 |"^b" d2 B2 e2 c2 | f2 f2 d2 g2 | e2 c2 f2 d2 | %51
w: * * * * mi-|ne, et|ma- lum co- ram|te fe- ci et|ma- lum co- ram|te fe- ci et|ma- lum co- ram|
 g2 e2 c2 f2 | d2 g2 e2 c2 | fedc B2 c2 | cB G2 A4 | G8 |] %56
w: te fe- ci et|ma- lum co- ram|te _ _ _ _ _|_ _ _ fe-|ci.|
V:3
 z8 | z8 | z8 | B8 | A8 | G8 | z8 | c8 | B8 |"^b" A8 | d6 c2 |"^b" B2 A2 G2 E2 |"^b" B6 A2 | %13
w: |||Pec-|ca-|vi,||Pec-|ca-|vi|su- per|nu- me- rum a-|re- *|
"^b" G2 F2 E4 | D8 | z2 G4 G2 |"^b" G2 F2 G2 E2 | D4 z2 D2 |"^b" G2 G2 E4 | D4 B4- | B2 A2 B2 F2 | %21
w: * nae ma-|ris,|et mul-|ti- pl- ca- ta|sunt pecc-|ca- ta me-|a, et|_ mul- ti- pli-|
 B4 G4 | F4 z2 F2 | B4 A2 F2 | G4 F4 | c6 B2 |"^b" c4 e2 B2 | c4 G4 | z2 d2 d2 c2 | %29
w: ca- ta|sunt pec-|ca- ta me-|* a,|non sum|di- gnus vi-|de- re,|et non sum|
"^b" B2 A2 F2 c2 | d2 B2 A4 | B6 A2 |"^b" G2 F2 E2 D2 |"^b" E4 C4 | B,8- | B,8 | B6 B2 | %37
w: di- gnus vi- de-|* * re|al- ti-|tu- * * di-|nem coe-|li,|_|quo- ni-|
 B2 B2 A2 B2 |"^#" G2 A2 B2 G2- | GABc d2 G2- | GABc d2 e2- | ed d4 c2 | d4 A4 | D4 d4- | %44
w: am ir- ri- ta-|vi i- ram tu-|* * * * am, Do-|||* mi-|ne, Do-|
 d2 A2 A4 | z2 d2 B2 G2 | c2 A2 d2 B2 | G2 c2 A2 F2 | B2 G2 c2 A2 | F2 d2 B2 G2 |"^#" c2 A2 d2 B2 | %51
w: * mi- ne,|et ma- lum|co- ram te fe-|ci et ma- lum|co- ram te fe-|ci et ma- lum|co- ram te fe-|
 G2 c2 A2 F2 | B2 G2 c2 A2 | F2 B4 A2 | F2 G2 D4 | G8 |] %56
w: ci et ma- lum|co- ram te fe-|ci, te fe-||ci.|

